Numix-Circle/48x48/apps/selektoricon.svg

<?xml version="1.0" encoding="UTF-8" standalone="no"?>
<svg
   xmlns:dc="http://purl.org/dc/elements/1.1/"
   xmlns:cc="http://creativecommons.org/ns#"
   xmlns:rdf="http://www.w3.org/1999/02/22-rdf-syntax-ns#"
   xmlns:svg="http://www.w3.org/2000/svg"
   xmlns="http://www.w3.org/2000/svg"
   xmlns:xlink="http://www.w3.org/1999/xlink"
   xmlns:sodipodi="http://sodipodi.sourceforge.net/DTD/sodipodi-0.dtd"
   xmlns:inkscape="http://www.inkscape.org/namespaces/inkscape"
   viewBox="0 0 48 48"
   id="svg2"
   version="1.1"
   inkscape:version="0.48.5 r10040"
   width="100%"
   height="100%"
   sodipodi:docname="selektoricon.svg">
  <metadata
     id="metadata61">
    <rdf:RDF>
      <cc:Work
         rdf:about="">
        <dc:format>image/svg+xml</dc:format>
        <dc:type
           rdf:resource="http://purl.org/dc/dcmitype/StillImage" />
      </cc:Work>
    </rdf:RDF>
  </metadata>
  <sodipodi:namedview
     pagecolor="#ffffff"
     bordercolor="#666666"
     borderopacity="1"
     objecttolerance="10"
     gridtolerance="10"
     guidetolerance="10"
     inkscape:pageopacity="0"
     inkscape:pageshadow="2"
     inkscape:window-width="1280"
     inkscape:window-height="998"
     id="namedview59"
     showgrid="false"
     inkscape:zoom="4.9166667"
     inkscape:cx="8.0604581"
     inkscape:cy="26.105539"
     inkscape:window-x="0"
     inkscape:window-y="0"
     inkscape:window-maximized="1"
     inkscape:current-layer="svg2" />
  <defs
     id="defs4">
    <linearGradient
       id="linearGradient3817">
      <stop
         style="stop-color:#2b7fab;stop-opacity:1;"
         offset="0"
         id="stop3819" />
      <stop
         style="stop-color:#2f8bbb;stop-opacity:1;"
         offset="1"
         id="stop3821" />
    </linearGradient>
    <linearGradient
       id="linearGradient3764"
       x1="1"
       x2="47"
       gradientUnits="userSpaceOnUse"
       gradientTransform="matrix(0,-1,1,0,-1.5e-6,47.999998)">
      <stop
         stop-color="#efeea1"
         stop-opacity="1"
         id="stop7" />
      <stop
         offset="1"
         stop-color="#f2f2b3"
         stop-opacity="1"
         id="stop9" />
    </linearGradient>
    <clipPath
       id="clipPath-783883865">
      <g
         transform="translate(0,-1004.3622)"
         id="g12">
        <path
           d="m -24 13 c 0 1.105 -0.672 2 -1.5 2 -0.828 0 -1.5 -0.895 -1.5 -2 0 -1.105 0.672 -2 1.5 -2 0.828 0 1.5 0.895 1.5 2 z"
           transform="matrix(15.333333,0,0,11.5,414.99999,878.8622)"
           fill="#1890d0"
           id="path14" />
      </g>
    </clipPath>
    <clipPath
       id="clipPath-790773971">
      <g
         transform="translate(0,-1004.3622)"
         id="g17">
        <path
           d="m -24 13 c 0 1.105 -0.672 2 -1.5 2 -0.828 0 -1.5 -0.895 -1.5 -2 0 -1.105 0.672 -2 1.5 -2 0.828 0 1.5 0.895 1.5 2 z"
           transform="matrix(15.333333,0,0,11.5,414.99999,878.8622)"
           fill="#1890d0"
           id="path19" />
      </g>
    </clipPath>
    <linearGradient
       inkscape:collect="always"
       xlink:href="#linearGradient3817"
       id="linearGradient3823"
       x1="1"
       y1="24"
       x2="47"
       y2="24"
       gradientUnits="userSpaceOnUse" />
    <linearGradient
       inkscape:collect="always"
       xlink:href="#linearGradient3817"
       id="linearGradient3825"
       gradientUnits="userSpaceOnUse"
       x1="1"
       y1="24"
       x2="47"
       y2="24" />
    <linearGradient
       inkscape:collect="always"
       xlink:href="#linearGradient3817"
       id="linearGradient3893"
       gradientUnits="userSpaceOnUse"
       x1="1"
       y1="24"
       x2="47"
       y2="24" />
    <linearGradient
       inkscape:collect="always"
       xlink:href="#linearGradient3817"
       id="linearGradient3909"
       gradientUnits="userSpaceOnUse"
       x1="1"
       y1="24"
       x2="47"
       y2="24" />
    <linearGradient
       inkscape:collect="always"
       xlink:href="#linearGradient3817"
       id="linearGradient3921"
       gradientUnits="userSpaceOnUse"
       x1="1"
       y1="24"
       x2="47"
       y2="24" />
    <linearGradient
       inkscape:collect="always"
       xlink:href="#linearGradient3817"
       id="linearGradient3945"
       gradientUnits="userSpaceOnUse"
       x1="1"
       y1="24"
       x2="47"
       y2="24" />
    <linearGradient
       inkscape:collect="always"
       xlink:href="#linearGradient3817"
       id="linearGradient3957"
       gradientUnits="userSpaceOnUse"
       x1="1"
       y1="24"
       x2="47"
       y2="24" />
  </defs>
  <g
     id="g21">
    <path
       d="m 36.31 5 c 5.859 4.062 9.688 10.831 9.688 18.5 c 0 12.426 -10.07 22.5 -22.5 22.5 c -7.669 0 -14.438 -3.828 -18.5 -9.688 c 1.037 1.822 2.306 3.499 3.781 4.969 c 4.085 3.712 9.514 5.969 15.469 5.969 c 12.703 0 23 -10.298 23 -23 c 0 -5.954 -2.256 -11.384 -5.969 -15.469 c -1.469 -1.475 -3.147 -2.744 -4.969 -3.781 z m 4.969 3.781 c 3.854 4.113 6.219 9.637 6.219 15.719 c 0 12.703 -10.297 23 -23 23 c -6.081 0 -11.606 -2.364 -15.719 -6.219 c 4.16 4.144 9.883 6.719 16.219 6.719 c 12.703 0 23 -10.298 23 -23 c 0 -6.335 -2.575 -12.06 -6.719 -16.219 z"
       opacity="0.05"
       id="path23" />
    <path
       d="m 41.28 8.781 c 3.712 4.085 5.969 9.514 5.969 15.469 c 0 12.703 -10.297 23 -23 23 c -5.954 0 -11.384 -2.256 -15.469 -5.969 c 4.113 3.854 9.637 6.219 15.719 6.219 c 12.703 0 23 -10.298 23 -23 c 0 -6.081 -2.364 -11.606 -6.219 -15.719 z"
       opacity="0.1"
       id="path25" />
    <path
       d="m 31.25 2.375 c 8.615 3.154 14.75 11.417 14.75 21.13 c 0 12.426 -10.07 22.5 -22.5 22.5 c -9.708 0 -17.971 -6.135 -21.12 -14.75 a 23 23 0 0 0 44.875 -7 a 23 23 0 0 0 -16 -21.875 z"
       opacity="0.2"
       id="path27" />
  </g>
  <g
     id="g29"
     style="fill:url(#linearGradient3823);fill-opacity:1"
     transform="matrix(0,-1,1,0,0,48)">
    <path
       d="M 24,1 C 36.703,1 47,11.297 47,24 47,36.703 36.703,47 24,47 11.297,47 1,36.703 1,24 1,11.297 11.297,1 24,1 z"
       id="path31"
       style="fill:url(#linearGradient3825);fill-opacity:1"
       inkscape:connector-curvature="0" />
  </g>
  <path
     style="fill:#000000;fill-opacity:1;stroke:none;opacity:0.1"
     d="M 29.90625 12.625 C 28.524177 14.823342 27.073511 16.872035 25.5 18.6875 C 24.788135 19.036116 24.086865 18.6919 23.375 18.5 C 21.340923 21.227609 20.216922 23.959891 17.25 26.6875 C 15.702433 26.886868 14.228459 26.77779 12.5 28.0625 C 12.00419 29.746566 10.802098 31.717122 8.71875 34.0625 C 7.0026566 33.428609 6.3610498 33.649856 5.5625 33.75 C 5.2632742 33.806732 4.4309779 34.202792 3.59375 34.59375 C 7.4257452 41.964737 15.117824 47 24 47 C 33.468339 47 41.597683 41.267416 45.125 33.09375 C 44.654803 32.099282 44.249622 31.189859 44.21875 30.78125 C 42.998388 29.628776 41.66197 28.827649 40.25 28.25 C 38.039129 26.374425 33.993226 19.566059 29.90625 12.625 z "
     id="path3937" />
  <g
     id="g33" />
  <path
     style="fill:#759b3f;fill-opacity:1;stroke:none"
     d="M 28.90625 11.625 C 27.524177 13.823342 26.073511 15.872035 24.5 17.6875 C 23.788135 18.036116 23.086865 17.691896 22.375 17.5 C 20.340923 20.227609 19.216922 22.959891 16.25 25.6875 C 14.702433 25.886868 13.228459 25.777785 11.5 27.0625 C 11.00419 28.746566 9.8020978 30.717122 7.71875 33.0625 C 6.0026566 32.428609 5.3610498 32.649856 4.5625 32.75 C 3.975806 32.861235 3.4559261 33.059097 2.96875 33.3125 C 6.5451335 41.371111 14.615042 47 24 47 C 32.554754 47 40.006468 42.336066 43.96875 35.40625 C 43.648438 33.424567 43.34667 31.474345 43.21875 29.78125 C 41.998388 28.628776 40.66197 27.827649 39.25 27.25 C 37.039129 25.374425 32.993226 18.566059 28.90625 11.625 z "
     id="path3827" />
  <path
     sodipodi:nodetypes="ccc"
     inkscape:connector-curvature="0"
     id="path3927"
     d="m 31.92069,21.315222 c -1.479615,6.145571 6.128084,8.629065 10.067283,13.303195 -4.43302,-4.790143 -5.070325,-6.184833 -10.067283,-13.303195 z"
     style="opacity:0.108;fill:#000000;fill-opacity:1;stroke:none" />
  <path
     style="opacity:1;fill:#cbd9b7;fill-opacity:1;stroke:none"
     d="m 30.92094,20.314972 c -1.479615,6.145571 6.128084,8.629065 10.067283,13.303195 -4.43302,-4.790143 -5.070325,-6.184833 -10.067283,-13.303195 z"
     id="path3829"
     inkscape:connector-curvature="0"
     sodipodi:nodetypes="ccc" />
  <path
     sodipodi:nodetypes="cscsc"
     inkscape:connector-curvature="0"
     id="path3929"
     d="m 24.34802,28.182547 c -1.910105,9.717803 1.635611,13.195115 -0.402632,14.668088 -1.823361,1.317685 -5.002694,-1.284595 -6.716375,0.145199 1.698646,-1.835488 -1.044549,-4.041337 -0.535726,-5.666315 0.819071,-2.615789 4.572511,-4.756226 7.654733,-9.146972 z"
     style="opacity:0.108;fill:#000000;fill-opacity:1;stroke:none" />
  <path
     style="opacity:1;fill:#cbd9b7;fill-opacity:1;stroke:none"
     d="m 23.34827,27.182297 c -1.910105,9.717803 1.635611,13.195115 -0.402632,14.668088 -1.823361,1.317685 -5.002694,-1.284595 -6.716375,0.145199 1.698646,-1.835488 -1.044549,-4.041337 -0.535726,-5.666315 0.819071,-2.615789 4.572511,-4.756226 7.654733,-9.146972 z"
     id="path3829-6"
     inkscape:connector-curvature="0"
     sodipodi:nodetypes="cscsc" />
  <path
     sodipodi:nodetypes="cccsc"
     inkscape:connector-curvature="0"
     id="path3931"
     d="m 30.260573,16.37724 c -0.61574,6.5538 -2.247484,5.141289 -4.285727,6.614262 -0.765037,1.511634 -5.92614,6.474892 -5.238644,3.467529 0.435224,-1.389934 1.396461,-5.123044 4.182909,-5.607418 3.725833,-0.64767 4.469907,-2.484107 5.341462,-4.474373 z"
     style="opacity:0.108;fill:#000000;fill-opacity:1;stroke:none" />
  <path
     style="opacity:1;fill:#cbd9b7;fill-opacity:1;stroke:none"
     d="m 29.260823,15.37699 c -0.61574,6.5538 -2.247484,5.141289 -4.285727,6.614262 -0.765037,1.511634 -5.92614,6.474892 -5.238644,3.467529 0.435224,-1.389934 1.396461,-5.123044 4.182909,-5.607418 3.725833,-0.64767 4.469907,-2.484107 5.341462,-4.474373 z"
     id="path3829-6-5"
     inkscape:connector-curvature="0"
     sodipodi:nodetypes="cccsc" />
  <path
     id="path3933"
     d="M 15.87475,29.469 C 13.65,31.794372 13.743051,34.493677 8.8435,35.344 7.4846107,35.579837 6.441826,36.403154 5.656,37.43775 c 0.757314,1.177366 1.6093227,2.264153 2.5625,3.28125 3.773736,-2.568452 8.261461,-6.967809 7.65625,-11.25 z"
     style="opacity:0.108;fill:#000000;fill-opacity:1;stroke:none"
     inkscape:connector-curvature="0" />
  <path
     style="opacity:1;fill:#cbd9b7;fill-opacity:1;stroke:none"
     d="M 14.875 28.46875 C 12.65025 30.794122 12.743301 33.493427 7.84375 34.34375 C 6.4848607 34.579587 5.442076 35.402904 4.65625 36.4375 C 5.413564 37.614866 6.2655727 38.701653 7.21875 39.71875 C 10.992486 37.150298 15.480211 32.750941 14.875 28.46875 z "
     id="path3829-6-5-9" />
  <path
     id="path3935"
     d="m 12.7185,40.93775 c -0.507742,0.187063 -1.406895,0.977305 -2.34375,1.8125 0.585751,0.4834 1.180182,0.91934 1.8125,1.34375 l 0.53125,-3.15625 z"
     style="opacity:0.108;fill:#000000;fill-opacity:1;stroke:none"
     inkscape:connector-curvature="0" />
  <path
     style="opacity:1;fill:#cbd9b7;fill-opacity:1;stroke:none"
     d="M 11.71875 39.9375 C 11.211008 40.124563 10.311855 40.914805 9.375 41.75 C 9.9607512 42.2334 10.555182 42.66934 11.1875 43.09375 L 11.71875 39.9375 z "
     id="path3885" />
  <g
     id="g55">
    <path
       d="m 40.03 7.531 c 3.712 4.084 5.969 9.514 5.969 15.469 0 12.703 -10.297 23 -23 23 c -5.954 0 -11.384 -2.256 -15.469 -5.969 4.178 4.291 10.01 6.969 16.469 6.969 c 12.703 0 23 -10.298 23 -23 0 -6.462 -2.677 -12.291 -6.969 -16.469 z"
       id="path57"
       opacity="0.1" />
  </g>
</svg>

<svg xmlns="http://www.w3.org/2000/svg" viewBox="0 0 48 48"><defs><clipPath><g transform="translate(0,-1004.3622)"><path d="m -24 13 c 0 1.105 -0.672 2 -1.5 2 -0.828 0 -1.5 -0.895 -1.5 -2 0 -1.105 0.672 -2 1.5 -2 0.828 0 1.5 0.895 1.5 2 z" transform="matrix(15.333333,0,0,11.5,414.99999,878.8622)" fill="#1890d0"/></g></clipPath><clipPath><g transform="translate(0,-1004.3622)"><path d="m -24 13 c 0 1.105 -0.672 2 -1.5 2 -0.828 0 -1.5 -0.895 -1.5 -2 0 -1.105 0.672 -2 1.5 -2 0.828 0 1.5 0.895 1.5 2 z" transform="matrix(15.333333,0,0,11.5,414.99999,878.8622)" fill="#1890d0"/></g></clipPath><linearGradient id="linearGradient3823" x1="1" x2="47" gradientUnits="userSpaceOnUse"><stop stop-color="#2b7fab" stop-opacity="1"/><stop offset="1" stop-color="#2f8bbb" stop-opacity="1"/></linearGradient></defs><g><path d="m 36.31 5 c 5.859 4.062 9.688 10.831 9.688 18.5 c 0 12.426 -10.07 22.5 -22.5 22.5 c -7.669 0 -14.438 -3.828 -18.5 -9.688 c 1.037 1.822 2.306 3.499 3.781 4.969 c 4.085 3.712 9.514 5.969 15.469 5.969 c 12.703 0 23 -10.298 23 -23 c 0 -5.954 -2.256 -11.384 -5.969 -15.469 c -1.469 -1.475 -3.147 -2.744 -4.969 -3.781 z m 4.969 3.781 c 3.854 4.113 6.219 9.637 6.219 15.719 c 0 12.703 -10.297 23 -23 23 c -6.081 0 -11.606 -2.364 -15.719 -6.219 c 4.16 4.144 9.883 6.719 16.219 6.719 c 12.703 0 23 -10.298 23 -23 c 0 -6.335 -2.575 -12.06 -6.719 -16.219 z" opacity="0.05"/><path d="m 41.28 8.781 c 3.712 4.085 5.969 9.514 5.969 15.469 c 0 12.703 -10.297 23 -23 23 c -5.954 0 -11.384 -2.256 -15.469 -5.969 c 4.113 3.854 9.637 6.219 15.719 6.219 c 12.703 0 23 -10.298 23 -23 c 0 -6.081 -2.364 -11.606 -6.219 -15.719 z" opacity="0.1"/><path d="m 31.25 2.375 c 8.615 3.154 14.75 11.417 14.75 21.13 c 0 12.426 -10.07 22.5 -22.5 22.5 c -9.708 0 -17.971 -6.135 -21.12 -14.75 a 23 23 0 0 0 44.875 -7 a 23 23 0 0 0 -16 -21.875 z" opacity="0.2"/></g><g transform="matrix(0,-1,1,0,0,48)" fill="url(#linearGradient3823)" fill-opacity="1"><path d="M 24,1 C 36.703,1 47,11.297 47,24 47,36.703 36.703,47 24,47 11.297,47 1,36.703 1,24 1,11.297 11.297,1 24,1 z"/></g><path d="m 29.906 12.625 c -1.382 2.198 -2.833 4.247 -4.406 6.06 c -0.712 0.349 -1.413 0.004 -2.125 -0.188 c -2.034 2.728 -3.158 5.46 -6.125 8.188 c -1.548 0.199 -3.02 0.09 -4.75 1.375 c -0.496 1.684 -1.698 3.655 -3.781 6 c -1.716 -0.634 -2.358 -0.413 -3.156 -0.313 c -0.299 0.057 -1.132 0.453 -1.969 0.844 c 3.832 7.371 11.524 12.406 20.406 12.406 c 9.468 0 17.598 -5.733 21.13 -13.906 c -0.47 -0.994 -0.875 -1.904 -0.906 -2.313 c -1.22 -1.152 -2.557 -1.954 -3.969 -2.531 c -2.211 -1.876 -6.257 -8.684 -10.344 -15.625 z" opacity="0.1" fill="#000" stroke="none" fill-opacity="1"/><path d="m 28.906 11.625 c -1.382 2.198 -2.833 4.247 -4.406 6.06 c -0.712 0.349 -1.413 0.004 -2.125 -0.188 c -2.034 2.728 -3.158 5.46 -6.125 8.188 c -1.548 0.199 -3.02 0.09 -4.75 1.375 c -0.496 1.684 -1.698 3.655 -3.781 6 c -1.716 -0.634 -2.358 -0.413 -3.156 -0.313 c -0.587 0.111 -1.107 0.309 -1.594 0.563 c 3.576 8.06 11.646 13.688 21.03 13.688 c 8.555 0 16.01 -4.664 19.969 -11.594 c -0.32 -1.982 -0.622 -3.932 -0.75 -5.625 c -1.22 -1.152 -2.557 -1.954 -3.969 -2.531 c -2.211 -1.876 -6.257 -8.684 -10.344 -15.625 z" fill="#759b3f" stroke="none" fill-opacity="1"/><path d="m 31.921 21.315 c -1.48 6.146 6.128 8.629 10.07 13.303 -4.433 -4.79 -5.07 -6.185 -10.07 -13.303 z" opacity="0.108" fill="#000" stroke="none" fill-opacity="1"/><path d="m 30.921 20.315 c -1.48 6.146 6.128 8.629 10.07 13.303 -4.433 -4.79 -5.07 -6.185 -10.07 -13.303 z" opacity="1" fill="#cbd9b7" stroke="none" fill-opacity="1"/><path d="m 24.348 28.18 c -1.91 9.718 1.636 13.195 -0.403 14.668 -1.823 1.318 -5 -1.285 -6.716 0.145 1.699 -1.835 -1.045 -4.04 -0.536 -5.666 0.819 -2.616 4.573 -4.756 7.655 -9.147 z" opacity="0.108" fill="#000" stroke="none" fill-opacity="1"/><path d="m 23.348 27.18 c -1.91 9.718 1.636 13.195 -0.403 14.668 -1.823 1.318 -5 -1.285 -6.716 0.145 1.699 -1.835 -1.045 -4.04 -0.536 -5.666 0.819 -2.616 4.573 -4.756 7.655 -9.147 z" opacity="1" fill="#cbd9b7" stroke="none" fill-opacity="1"/><path d="m 30.26 16.377 c -0.616 6.554 -2.247 5.141 -4.286 6.614 -0.765 1.512 -5.926 6.475 -5.239 3.468 0.435 -1.39 1.396 -5.123 4.183 -5.607 3.726 -0.648 4.47 -2.484 5.341 -4.474 z" opacity="0.108" fill="#000" stroke="none" fill-opacity="1"/><path d="m 29.26 15.377 c -0.616 6.554 -2.247 5.141 -4.286 6.614 -0.765 1.512 -5.926 6.475 -5.239 3.468 0.435 -1.39 1.396 -5.123 4.183 -5.607 3.726 -0.648 4.47 -2.484 5.341 -4.474 z" opacity="1" fill="#cbd9b7" stroke="none" fill-opacity="1"/><path d="m 15.875 29.469 c -2.225 2.325 -2.132 5.02 -7.03 5.875 -1.359 0.236 -2.402 1.059 -3.188 2.094 c 0.757 1.177 1.609 2.264 2.562 3.281 3.774 -2.568 8.261 -6.968 7.656 -11.25 z" opacity="0.108" fill="#000" stroke="none" fill-opacity="1"/><path d="m 14.875 28.469 c -2.225 2.325 -2.132 5.02 -7.03 5.875 c -1.359 0.236 -2.402 1.059 -3.188 2.094 c 0.757 1.177 1.609 2.264 2.563 3.281 c 3.774 -2.568 8.261 -6.968 7.656 -11.25 z" opacity="1" fill="#cbd9b7" stroke="none" fill-opacity="1"/><path d="m 12.719 40.938 c -0.508 0.187 -1.407 0.977 -2.344 1.813 0.586 0.483 1.18 0.919 1.813 1.344 l 0.531 -3.156 z" opacity="0.108" fill="#000" stroke="none" fill-opacity="1"/><path d="m 11.719 39.938 c -0.508 0.187 -1.407 0.977 -2.344 1.813 c 0.586 0.483 1.18 0.919 1.813 1.344 l 0.531 -3.156 z" opacity="1" fill="#cbd9b7" stroke="none" fill-opacity="1"/><g><path d="m 40.03 7.531 c 3.712 4.084 5.969 9.514 5.969 15.469 0 12.703 -10.297 23 -23 23 c -5.954 0 -11.384 -2.256 -15.469 -5.969 4.178 4.291 10.01 6.969 16.469 6.969 c 12.703 0 23 -10.298 23 -23 0 -6.462 -2.677 -12.291 -6.969 -16.469 z" opacity="0.1"/></g></svg>
